X:518
T:B518-  Who's the Fool Now, or Martin Said to His Man
Q:1/4=120
L:1/4
M:6/4
K:G mixolydian
GGABBA|G2^FG2G|AABc3/2c/B|A3/2A/^GA3|\
BdcB3/2A/G|GG/A/ B/G/A3/2^F/D|GGDB,3/2C/D|B3/2c/AG3|]

